X: 26684
T: Mighty Keith O'Neill
R: reel
M: 4/4
K: Gmajor
|:d2BA BAGF|E3G DEGA|BGEG DEGA|B2dB BAGA|
d2BA BAGF|E3G DEGA|BG~G2Bdeg|fdcAG4:|
B2dB AGED|G2 BG EGDG|EGDG EGDG|B2dB BAGA|
d2BA BAGF|E3G DEGA|BG~G2Bdeg|fdcAG4|
dggf gbag|fdcB cAFA|GABc d2 Bd|=f3 g fcA2|
dGG^F G2Bd|=fgfcA4|(3de^f eg fdcA|BGAFG4|

